src/assets/filled/Calendar2.svg

<svg width="24" height="24" viewBox="0 0 24 24"  xmlns="http://www.w3.org/2000/svg">
<path d="M16.75 3.56V2C16.75 1.59 16.41 1.25 16 1.25C15.59 1.25 15.25 1.59 15.25 2V3.5H8.74999V2C8.74999 1.59 8.40999 1.25 7.99999 1.25C7.58999 1.25 7.24999 1.59 7.24999 2V3.56C4.54999 3.81 3.23999 5.42 3.03999 7.81C3.01999 8.1 3.25999 8.34 3.53999 8.34H20.46C20.75 8.34 20.99 8.09 20.96 7.81C20.76 5.42 19.45 3.81 16.75 3.56Z" />
<path d="M20 9.83984H4C3.45 9.83984 3 10.2898 3 10.8398V16.9998C3 19.9998 4.5 21.9998 8 21.9998H16C19.5 21.9998 21 19.9998 21 16.9998V10.8398C21 10.2898 20.55 9.83984 20 9.83984ZM9.21 18.2098C9.11 18.2998 9 18.3698 8.88 18.4198C8.76 18.4698 8.63 18.4998 8.5 18.4998C8.37 18.4998 8.24 18.4698 8.12 18.4198C8 18.3698 7.89 18.2998 7.79 18.2098C7.61 18.0198 7.5 17.7598 7.5 17.4998C7.5 17.2398 7.61 16.9798 7.79 16.7898C7.89 16.6998 8 16.6298 8.12 16.5798C8.36 16.4798 8.64 16.4798 8.88 16.5798C9 16.6298 9.11 16.6998 9.21 16.7898C9.39 16.9798 9.5 17.2398 9.5 17.4998C9.5 17.7598 9.39 18.0198 9.21 18.2098ZM9.42 14.3798C9.37 14.4998 9.3 14.6098 9.21 14.7098C9.11 14.7998 9 14.8698 8.88 14.9198C8.76 14.9698 8.63 14.9998 8.5 14.9998C8.37 14.9998 8.24 14.9698 8.12 14.9198C8 14.8698 7.89 14.7998 7.79 14.7098C7.7 14.6098 7.63 14.4998 7.58 14.3798C7.53 14.2598 7.5 14.1298 7.5 13.9998C7.5 13.8698 7.53 13.7398 7.58 13.6198C7.63 13.4998 7.7 13.3898 7.79 13.2898C7.89 13.1998 8 13.1298 8.12 13.0798C8.36 12.9798 8.64 12.9798 8.88 13.0798C9 13.1298 9.11 13.1998 9.21 13.2898C9.3 13.3898 9.37 13.4998 9.42 13.6198C9.47 13.7398 9.5 13.8698 9.5 13.9998C9.5 14.1298 9.47 14.2598 9.42 14.3798ZM12.71 14.7098C12.61 14.7998 12.5 14.8698 12.38 14.9198C12.26 14.9698 12.13 14.9998 12 14.9998C11.87 14.9998 11.74 14.9698 11.62 14.9198C11.5 14.8698 11.39 14.7998 11.29 14.7098C11.11 14.5198 11 14.2598 11 13.9998C11 13.7398 11.11 13.4798 11.29 13.2898C11.39 13.1998 11.5 13.1298 11.62 13.0798C11.86 12.9698 12.14 12.9698 12.38 13.0798C12.5 13.1298 12.61 13.1998 12.71 13.2898C12.89 13.4798 13 13.7398 13 13.9998C13 14.2598 12.89 14.5198 12.71 14.7098Z" />
</svg>

<?xml version="1.0" encoding="UTF-8"?>
<svg width="24" height="24" viewBox="0 0 24 24" xmlns="http://www.w3.org/2000/svg">
 <path d="m16.75 3.56v-1.56c0-0.41-0.34-0.75-0.75-0.75s-0.75 0.34-0.75 0.75v1.5h-6.5v-1.5c0-0.41-0.34-0.75-0.75-0.75s-0.75 0.34-0.75 0.75v1.56c-2.7 0.25-4.01 1.86-4.21 4.25-0.02 0.29 0.22 0.53 0.5 0.53h16.92c0.29 0 0.53-0.25 0.5-0.53-0.2-2.39-1.51-4-4.21-4.25z"/>
 <path d="m20 9.8398h-16c-0.55 0-1 0.44996-1 0.99996v6.16c0 3 1.5 5 5 5h8c3.5 0 5-2 5-5v-6.16c0-0.55-0.45-0.99996-1-0.99996zm-10.79 8.37c-0.1 0.09-0.21 0.16-0.33 0.21s-0.25 0.08-0.38 0.08-0.26-0.03-0.38-0.08-0.23-0.12-0.33-0.21c-0.18-0.19-0.29-0.45-0.29-0.71s0.11-0.52 0.29-0.71c0.1-0.09 0.21-0.16 0.33-0.21 0.24-0.1 0.52-0.1 0.76 0 0.12 0.05 0.23 0.12 0.33 0.21 0.18 0.19 0.29 0.45 0.29 0.71s-0.11 0.52-0.29 0.71zm0.21-3.83c-0.05 0.12-0.12 0.23-0.21 0.33-0.1 0.09-0.21 0.16-0.33 0.21s-0.25 0.08-0.38 0.08-0.26-0.03-0.38-0.08-0.23-0.12-0.33-0.21c-0.09-0.1-0.16-0.21-0.21-0.33s-0.08-0.25-0.08-0.38 0.03-0.26 0.08-0.38 0.12-0.23 0.21-0.33c0.1-0.09 0.21-0.16 0.33-0.21 0.24-0.1 0.52-0.1 0.76 0 0.12 0.05 0.23 0.12 0.33 0.21 0.09 0.1 0.16 0.21 0.21 0.33s0.08 0.25 0.08 0.38-0.03 0.26-0.08 0.38zm3.29 0.33c-0.1 0.09-0.21 0.16-0.33 0.21s-0.25 0.08-0.38 0.08-0.26-0.03-0.38-0.08-0.23-0.12-0.33-0.21c-0.18-0.19-0.29-0.45-0.29-0.71s0.11-0.52 0.29-0.71c0.1-0.09 0.21-0.16 0.33-0.21 0.24-0.11 0.52-0.11 0.76 0 0.12 0.05 0.23 0.12 0.33 0.21 0.18 0.19 0.29 0.45 0.29 0.71s-0.11 0.52-0.29 0.71z"/>
</svg>
